X: 3234
T: CUMMILUM
%R: slip-jig
B: James Kerr "Merry Melodies" v.3 p.26 #234
Z: 2016 John Chambers <jc:trillian.mit.edu>
M: 9/8
L: 1/8
K: A
|:\
vedc   c2c   c2c  | uedc   c2c  (d2B)  |\
 edc   c2c   c2c  |  B2B   B2c  (d2B) :|\
(A2c) (e2c) (e2c) | (A2c) (e2c) (d2B)  |\
(A2c) (e2c)  e2c  |  BcB   B2c  (d2B) :|

%%sep 1 1 500
%%sep 1 1 500

